X:45
M:C|
L:1/8
K:A
e|cA A/A/A d=GdB|cAAc dB=GB|cA A/A/A d=GdB|cAAB =GEEe|
cA A/A/A d=GdB|cAAc dB=GB|cA A/A/A dB B/B/B|cA A/A/A =GEE||

